tools/download-figma-icons/icons/outlined-medium/life.svg

<svg width="24" height="24" viewBox="0 0 24 24" fill="none" xmlns="http://www.w3.org/2000/svg">
<path fill-rule="evenodd" clip-rule="evenodd" d="M20.0735 18.7035C19.7345 17.1818 18.7452 14.8891 15.8706 13.2841C16.724 12.3496 17.2498 11.1114 17.2498 9.75016C17.2498 6.85522 14.8948 4.50027 11.9999 4.50027C9.10569 4.50027 6.74999 6.85522 6.74999 9.75016C6.74999 11.1114 7.27648 12.3496 8.12921 13.2833C5.25527 14.8883 4.26604 17.181 3.9263 18.7027C2.41283 16.8825 1.5001 14.5463 1.5001 12.0001C1.5001 6.21023 6.21075 1.50033 11.9999 1.50033C17.7898 1.50033 22.4997 6.21023 22.4997 12.0001C22.4997 14.5463 21.5877 16.8833 20.0735 18.7035ZM11.9999 13.5001C9.93293 13.5001 8.24996 11.8171 8.24996 9.75016C8.24996 7.68245 9.93293 6.00024 11.9999 6.00024C14.0676 6.00024 15.7498 7.68245 15.7498 9.75016C15.7498 11.8171 14.0676 13.5001 11.9999 13.5001ZM5.25076 20.0317C5.27551 19.248 5.62575 16.1273 9.41843 14.3153C10.1819 14.7496 11.0609 15.0001 11.9999 15.0001C12.9381 15.0001 13.8186 14.7496 14.5821 14.3153C18.374 16.128 18.7242 19.2495 18.7482 20.0317C16.922 21.5692 14.5686 22.4999 11.9999 22.4999C9.43118 22.4999 7.07773 21.5684 5.25076 20.0317ZM11.9998 0.000488271C5.38339 0.000488271 0 5.38313 0 12.0002C0 18.6166 5.38339 24 11.9998 24C18.6169 24 23.9995 18.6166 23.9995 12.0002C23.9995 5.38313 18.6169 0.000488271 11.9998 0.000488271Z" fill="black"/>
</svg>

<svg xmlns="http://www.w3.org/2000/svg" width="24" height="24" fill="none" viewBox="0 0 24 24"><path fill="currentColor" fill-rule="evenodd" d="M20.074 18.704c-.34-1.522-1.329-3.815-4.203-5.42A5.23 5.23 0 0 0 17.25 9.75 5.256 5.256 0 0 0 12 4.5a5.256 5.256 0 0 0-5.25 5.25c0 1.361.526 2.6 1.38 3.533-2.875 1.605-3.864 3.898-4.204 5.42A10.45 10.45 0 0 1 1.5 12C1.5 6.21 6.21 1.5 12 1.5S22.5 6.21 22.5 12c0 2.546-.912 4.883-2.427 6.703M12 13.5a3.755 3.755 0 0 1-3.75-3.75A3.755 3.755 0 0 1 12 6a3.754 3.754 0 0 1 3.75 3.75A3.755 3.755 0 0 1 12 13.5m-6.75 6.532c.026-.784.376-3.905 4.168-5.717a5.2 5.2 0 0 0 5.164 0c3.792 1.813 4.142 4.935 4.166 5.717A10.45 10.45 0 0 1 12 22.5c-2.569 0-4.922-.932-6.75-2.468M12 0C5.383 0 0 5.383 0 12s5.383 12 12 12 12-5.383 12-12S18.617 0 12 0" clip-rule="evenodd"/></svg>
